X: 22726
T: Lamentation For MacDonald Of Keppoch
R: slip jig
M: 9/8
K: Adorian
A3 A>GA c2c|c2A TA>GG G3|e3 Te>de a2g|e2d Tc>AG A3|
g3 age g>ed|{cd}e2d Tc>AG G3|A3 A>GA c2d|{cd}e2d Tc>AG {G}A3||

